src/assets/images/gallery_widget.svg

<svg height="100" viewBox="0 0 150 100" width="150" xmlns="http://www.w3.org/2000/svg" xmlns:xlink="http://www.w3.org/1999/xlink"><g fill="none" fill-rule="evenodd"><path d="m26 24h98v52h-98z" stroke="#ff6b6b" stroke-width="2"/><g fill="#ff6b6b" transform="translate(53 31)"><path id="a" d="m15.138855 5.45504176 7.7051033 13.62745854c.0948138.1676907.2995964.2114963.4515904.1020234l6.5361704-4.7076505c.3059384-.220351.7133408-.1434791.9176375.1840065l11.8789369 14.1956785c.2008588.3219749.0556317.5829873-.2990208.5829873h-41.7751881c-.36698032 0-.52642641-.2726161-.35313257-.6148294l14.28384207-23.36098361c.1719505-.33956087.4681998-.33740985.6540609-.00869073zm21.7403316 2.5064967c1.9600823 0 3.5490431-1.62727267 3.5490431-3.63461538 0-2.00734274-1.5889608-3.63461539-3.5490431-3.63461539s-3.5490431 1.62727265-3.5490431 3.63461539c0 2.00734271 1.5889608 3.63461538 3.5490431 3.63461538z"/></g><g transform="translate(65 68)"><use fill="#fff" fill-rule="evenodd" xlink:href="#a"/><path d="m-.5-.5h22v17h-22z" stroke="#ff6b6b"/></g><g transform="translate(67.1 70.133333)"><path d="m.10728149 0c-.05924993 0-.10728149.04377365-.10728149.09730882v11.89427128c0 .0537422.04819336.0973088.10728149.0973088h16.58543711c.0592498 0 .1072814-.0437737.1072814-.0973088v-11.89427128c0-.05374217-.0481934-.09730882-.1072814-.09730882z" fill="#fff"/><g fill="#ff6b6b"><path d="m6.2348606 2.88851638 2.48221878 4.26903151c.03054453.05253195.09651577.0662548.14548101.03196056l2.10564411-1.47475103c.0985588-.06902867.2298045-.04494725.2956192.05764315l3.8268301 4.44703603c.0647071.100864.0179219.1826306-.0963304.1826306h-13.45798403c-.11822366 0-.16958962-.0854016-.11376257-.1926057l4.60157638-7.31822261c.05539431-.10637317.15083176-.10569933.21070742-.00272251z"/><path d="m13.72 3.65478036c.6185589 0 1.12-.50347718 1.12-1.1245478 0-.62107063-.5014411-1.12454781-1.12-1.12454781s-1.12.50347718-1.12 1.12454781c0 .62107062.5014411 1.1245478 1.12 1.1245478z"/></g></g><g transform="translate(39 68)"><path d="m0 0h21v16h-21z" fill="#fff" fill-rule="evenodd"/><path d="m-.5-.5h22v17h-22z" stroke="#ff6b6b"/></g><g transform="translate(41.1 70.133333)"><path d="m.10728149 0c-.05924993 0-.10728149.04377365-.10728149.09730882v11.89427128c0 .0537422.04819336.0973088.10728149.0973088h16.58543711c.0592498 0 .1072814-.0437737.1072814-.0973088v-11.89427128c0-.05374217-.0481934-.09730882-.1072814-.09730882z" fill="#fff"/><g fill="#ff6b6b"><path d="m6.2348606 2.88851638 2.48221878 4.26903151c.03054453.05253195.09651577.0662548.14548101.03196056l2.10564411-1.47475103c.0985588-.06902867.2298045-.04494725.2956192.05764315l3.8268301 4.44703603c.0647071.100864.0179219.1826306-.0963304.1826306h-13.45798403c-.11822366 0-.16958962-.0854016-.11376257-.1926057l4.60157638-7.31822261c.05539431-.10637317.15083176-.10569933.21070742-.00272251z"/><path d="m13.72 3.65478036c.6185589 0 1.12-.50347718 1.12-1.1245478 0-.62107063-.5014411-1.12454781-1.12-1.12454781s-1.12.50347718-1.12 1.12454781c0 .62107062.5014411 1.1245478 1.12 1.1245478z"/></g></g><g transform="translate(91 68)"><path d="m0 0h21v16h-21z" fill="#fff" fill-rule="evenodd"/><path d="m-.5-.5h22v17h-22z" stroke="#ff6b6b"/></g><g transform="translate(93.1 70.133333)"><path d="m.10728149 0c-.05924993 0-.10728149.04377365-.10728149.09730882v11.89427128c0 .0537422.04819336.0973088.10728149.0973088h16.58543711c.0592498 0 .1072814-.0437737.1072814-.0973088v-11.89427128c0-.05374217-.0481934-.09730882-.1072814-.09730882z" fill="#fff"/><g fill="#ff6b6b"><path d="m6.2348606 2.88851638 2.48221878 4.26903151c.03054453.05253195.09651577.0662548.14548101.03196056l2.10564411-1.47475103c.0985588-.06902867.2298045-.04494725.2956192.05764315l3.8268301 4.44703603c.0647071.100864.0179219.1826306-.0963304.1826306h-13.45798403c-.11822366 0-.16958962-.0854016-.11376257-.1926057l4.60157638-7.31822261c.05539431-.10637317.15083176-.10569933.21070742-.00272251z"/><path d="m13.72 3.65478036c.6185589 0 1.12-.50347718 1.12-1.1245478 0-.62107063-.5014411-1.12454781-1.12-1.12454781s-1.12.50347718-1.12 1.12454781c0 .62107062.5014411 1.1245478 1.12 1.1245478z"/></g></g></g></svg>

<?xml version="1.0" encoding="UTF-8"?>
<svg width="150px" height="100px" viewBox="0 0 150 100" version="1.1" xmlns="http://www.w3.org/2000/svg" xmlns:xlink="http://www.w3.org/1999/xlink">
    <!-- Generator: Sketch 47.1 (45422) - http://www.bohemiancoding.com/sketch -->
    <title>gallery</title>
    <desc>Created with Sketch.</desc>
    <defs>
        <rect id="path-1" x="0" y="0" width="21" height="16"></rect>
        <rect id="path-2" x="0" y="0" width="21" height="16"></rect>
        <rect id="path-3" x="0" y="0" width="21" height="16"></rect>
    </defs>
    <g id="Page-1" stroke="none" stroke-width="1" fill="none" fill-rule="evenodd">
        <g id="gallery">
            <g id="Group-3" transform="translate(27.000000, 25.000000)">
                <g id="Group">
                    <rect id="Rectangle-5" stroke="#FF6B6B" stroke-width="2" x="-1" y="-1" width="98" height="52"></rect>
                    <g id="editor-images-pictures-photos-collection-glyph" transform="translate(26.000000, 6.000000)" fill="#FF6B6B">
                        <g id="path-1-link">
                            <path d="M15.138855,5.45504176 L22.8439583,19.0825003 C22.9387721,19.250191 23.1435547,19.2939966 23.2955487,19.1845237 L29.8317191,14.4768732 C30.1376575,14.2565222 30.5450599,14.3333941 30.7493566,14.6608797 L42.6282935,28.8565582 C42.8291523,29.1785331 42.6839252,29.4395455 42.3292727,29.4395455 L0.554084604,29.4395455 C0.187104277,29.4395455 0.0276581936,29.1669294 0.200952028,28.8247161 L14.4847941,5.46373249 C14.6567446,5.12417162 14.9529939,5.12632264 15.138855,5.45504176 Z M36.8791866,7.96153846 C38.8392689,7.96153846 40.4282297,6.33426579 40.4282297,4.32692308 C40.4282297,2.31958034 38.8392689,0.692307692 36.8791866,0.692307692 C34.9191043,0.692307692 33.3301435,2.31958034 33.3301435,4.32692308 C33.3301435,6.33426579 34.9191043,7.96153846 36.8791866,7.96153846 Z" id="path-1"></path>
                        </g>
                    </g>
                </g>
                <g id="Group-2" transform="translate(38.000000, 43.000000)">
                    <g id="Rectangle-4">
                        <use fill="#FFFFFF" fill-rule="evenodd" xlink:href="#path-1"></use>
                        <rect stroke="#FF6B6B" stroke-width="1" x="-0.5" y="-0.5" width="22" height="17"></rect>
                    </g>
                    <g id="Group" transform="translate(2.100000, 2.133333)">
                        <path d="M0.107281494,0 C0.048031561,0 0,0.0437736476 0,0.0973088236 L0,11.9915801 C0,12.0453223 0.0481933592,12.0888889 0.107281494,12.0888889 L16.6927186,12.0888889 C16.7519684,12.0888889 16.8,12.0451152 16.8,11.9915801 L16.8,0.0973088236 C16.8,0.043566648 16.7518066,0 16.6927186,0 L0.107281494,0 Z" id="path-1-path" fill="#FFFFFF"></path>
                        <path d="M6.2348606,2.88851638 L8.71707938,7.15754789 C8.74762391,7.21007984 8.81359515,7.22380269 8.86256039,7.18950845 L10.9682045,5.71475742 C11.0667633,5.64572875 11.198009,5.66981017 11.2638237,5.77240057 L15.0906538,10.2194366 C15.1553609,10.3203006 15.1085757,10.4020672 14.9943234,10.4020672 L1.53633937,10.4020672 C1.41811571,10.4020672 1.36674975,10.3166656 1.4225768,10.2094615 L6.02415318,2.89123889 C6.07954749,2.78486572 6.17498494,2.78553956 6.2348606,2.88851638 Z" id="path-1-path" fill="#FF6B6B"></path>
                        <path d="M13.72,3.65478036 C14.3385589,3.65478036 14.84,3.15130318 14.84,2.53023256 C14.84,1.90916193 14.3385589,1.40568475 13.72,1.40568475 C13.1014411,1.40568475 12.6,1.90916193 12.6,2.53023256 C12.6,3.15130318 13.1014411,3.65478036 13.72,3.65478036 Z" id="path-1-path" fill="#FF6B6B"></path>
                    </g>
                </g>
                <g id="Group-2" transform="translate(12.000000, 43.000000)">
                    <g id="Rectangle-4">
                        <use fill="#FFFFFF" fill-rule="evenodd" xlink:href="#path-2"></use>
                        <rect stroke="#FF6B6B" stroke-width="1" x="-0.5" y="-0.5" width="22" height="17"></rect>
                    </g>
                    <g id="Group" transform="translate(2.100000, 2.133333)">
                        <path d="M0.107281494,0 C0.048031561,0 0,0.0437736476 0,0.0973088236 L0,11.9915801 C0,12.0453223 0.0481933592,12.0888889 0.107281494,12.0888889 L16.6927186,12.0888889 C16.7519684,12.0888889 16.8,12.0451152 16.8,11.9915801 L16.8,0.0973088236 C16.8,0.043566648 16.7518066,0 16.6927186,0 L0.107281494,0 Z" id="path-1-path" fill="#FFFFFF"></path>
                        <path d="M6.2348606,2.88851638 L8.71707938,7.15754789 C8.74762391,7.21007984 8.81359515,7.22380269 8.86256039,7.18950845 L10.9682045,5.71475742 C11.0667633,5.64572875 11.198009,5.66981017 11.2638237,5.77240057 L15.0906538,10.2194366 C15.1553609,10.3203006 15.1085757,10.4020672 14.9943234,10.4020672 L1.53633937,10.4020672 C1.41811571,10.4020672 1.36674975,10.3166656 1.4225768,10.2094615 L6.02415318,2.89123889 C6.07954749,2.78486572 6.17498494,2.78553956 6.2348606,2.88851638 Z" id="path-1-path" fill="#FF6B6B"></path>
                        <path d="M13.72,3.65478036 C14.3385589,3.65478036 14.84,3.15130318 14.84,2.53023256 C14.84,1.90916193 14.3385589,1.40568475 13.72,1.40568475 C13.1014411,1.40568475 12.6,1.90916193 12.6,2.53023256 C12.6,3.15130318 13.1014411,3.65478036 13.72,3.65478036 Z" id="path-1-path" fill="#FF6B6B"></path>
                    </g>
                </g>
                <g id="Group-2" transform="translate(64.000000, 43.000000)">
                    <g id="Rectangle-4">
                        <use fill="#FFFFFF" fill-rule="evenodd" xlink:href="#path-3"></use>
                        <rect stroke="#FF6B6B" stroke-width="1" x="-0.5" y="-0.5" width="22" height="17"></rect>
                    </g>
                    <g id="Group" transform="translate(2.100000, 2.133333)">
                        <path d="M0.107281494,0 C0.048031561,0 0,0.0437736476 0,0.0973088236 L0,11.9915801 C0,12.0453223 0.0481933592,12.0888889 0.107281494,12.0888889 L16.6927186,12.0888889 C16.7519684,12.0888889 16.8,12.0451152 16.8,11.9915801 L16.8,0.0973088236 C16.8,0.043566648 16.7518066,0 16.6927186,0 L0.107281494,0 Z" id="path-1-path" fill="#FFFFFF"></path>
                        <path d="M6.2348606,2.88851638 L8.71707938,7.15754789 C8.74762391,7.21007984 8.81359515,7.22380269 8.86256039,7.18950845 L10.9682045,5.71475742 C11.0667633,5.64572875 11.198009,5.66981017 11.2638237,5.77240057 L15.0906538,10.2194366 C15.1553609,10.3203006 15.1085757,10.4020672 14.9943234,10.4020672 L1.53633937,10.4020672 C1.41811571,10.4020672 1.36674975,10.3166656 1.4225768,10.2094615 L6.02415318,2.89123889 C6.07954749,2.78486572 6.17498494,2.78553956 6.2348606,2.88851638 Z" id="path-1-path" fill="#FF6B6B"></path>
                        <path d="M13.72,3.65478036 C14.3385589,3.65478036 14.84,3.15130318 14.84,2.53023256 C14.84,1.90916193 14.3385589,1.40568475 13.72,1.40568475 C13.1014411,1.40568475 12.6,1.90916193 12.6,2.53023256 C12.6,3.15130318 13.1014411,3.65478036 13.72,3.65478036 Z" id="path-1-path" fill="#FF6B6B"></path>
                    </g>
                </g>
            </g>
        </g>
    </g>
</svg>
